svgs/thin/folder-music.svg

<svg xmlns="http://www.w3.org/2000/svg" viewBox="0 0 512 512"><!-- Font Awesome Pro 6.0.0-alpha2 by @fontawesome - https://fontawesome.com License - https://fontawesome.com/license (Commercial License) --><path d="M464 96H272L217.373 41.375C211.371 35.371 203.232 32 194.746 32H48C21.49 32 0 53.492 0 80V432C0 458.508 21.49 480 48 480H464C490.51 480 512 458.508 512 432V144C512 117.492 490.51 96 464 96ZM496 432C496 449.672 481.674 464 464 464H48C30.326 464 16 449.672 16 432V80C16 62.328 30.326 48 48 48H188.117C196.604 48 204.742 51.371 210.744 57.371L265.371 112H464C481.674 112 496 126.328 496 144V432ZM340.797 192.656L212.797 248.656C209.875 249.938 208 252.812 208 256V360.305C199.494 355.195 188.35 352 176 352C149.49 352 128 366.328 128 384S149.49 416 176 416S224 401.672 224 384V261.219L336 212.219V328.305C327.494 323.195 316.35 320 304 320C277.49 320 256 334.328 256 352S277.49 384 304 384S352 369.672 352 352V200C352 197.312 350.641 194.781 348.375 193.312C346.156 191.812 343.25 191.625 340.797 192.656ZM176 400C156.467 400 144 390.523 144 384S156.467 368 176 368C195.535 368 208 377.477 208 384S195.535 400 176 400ZM304 368C284.467 368 272 358.523 272 352S284.467 336 304 336C323.535 336 336 345.477 336 352S323.535 368 304 368Z"/></svg>

<svg xmlns="http://www.w3.org/2000/svg" viewBox="0 0 512 512"><!--! Font Awesome Pro 6.3.0 by @fontawesome - https://fontawesome.com License - https://fontawesome.com/license (Commercial License) Copyright 2023 Fonticons, Inc. --><path d="M464 96h-192L217.4 41.38C211.4 35.37 203.2 32 194.7 32H48C21.49 32 0 53.49 0 80v352C0 458.5 21.49 480 48 480h416c26.51 0 48-21.49 48-48v-288C512 117.5 490.5 96 464 96zM496 432c0 17.67-14.33 32-32 32h-416c-17.67 0-32-14.33-32-32v-352c0-17.67 14.33-32 32-32h140.1c8.486 0 16.62 3.371 22.63 9.371L265.4 112H464c17.67 0 32 14.33 32 32V432zM340.8 192.7l-128 56C209.9 249.9 208 252.8 208 256v104.3C199.5 355.2 188.3 352 176 352C149.5 352 128 366.3 128 384s21.49 32 48 32S224 401.7 224 384V261.2l112-49v116.1C327.5 323.2 316.3 320 304 320c-26.51 0-48 14.33-48 32s21.49 32 48 32s48-14.33 48-32V200c0-2.688-1.359-5.219-3.625-6.688C346.2 191.8 343.3 191.6 340.8 192.7zM176 400c-19.53 0-32-9.477-32-16s12.47-16 32-16c19.54 0 32 9.477 32 16S195.5 400 176 400zM304 368c-19.53 0-32-9.477-32-16s12.47-16 32-16c19.54 0 32 9.477 32 16S323.5 368 304 368z"/></svg>
